assets/svg/1f688.svg

<svg xmlns="http://www.w3.org/2000/svg" viewBox="0 0 64 64" enable-background="new 0 0 64 64"><path fill="#94989b" d="m2 56.46h60v5.539h-60z"/><path fill="#62696d" d="m2 56.46h60v1.848h-60z"/><path fill="#dfecf4" d="M25.346,14C14.488,14,2,37.428,2,50.605c0,3.188,2.536,5.777,5.693,5.855h0.005H62V14
			C62,14,48.875,14,25.346,14z"/><g fill="#3e4347"><path d="m15.13 19.856c-6.843 7.397-12.5 20.247-13.07 29.28h10.173c0 0 13.182 0 13.182-7.32 0-5.49 0-21.964 0-21.964h-10.283"/><path d="m41.55 19.856c-7.324 0-7.324 1.464-7.324 15.374v13.91h27.774v-29.28c0 0-18.619 0-20.45 0"/></g><path fill="#3baacf" d="M2.051,49.141C2.02,49.639,2,50.131,2,50.605c0,3.188,2.536,5.777,5.693,5.855h0.005H62v-7.32H2.051z"/><path fill="#fdf516" d="M11.521,56.461c0,0,7.343-7.32,21.98-7.32H62v7.32H11.521z"/><g fill="#62696d"><path d="m47.41 34.498c-.809 0-1.255.684-1.465 1.465l-1.281 10.25h-4.666c-1.377 0-1.377.873-1.377 1.951v.977h10.255v-14.643h-1.466"/><path d="m60.53 34.498c-.809 0-1.255.684-1.465 1.465l-1.281 10.25h-4.666c-1.377 0-1.377.873-1.377 1.951v.977h10.255v-14.643h-1.466"/></g><ellipse fill="#fff" cx="6.395" cy="52.802" rx=".732" ry="2.196"/><path fill="#3baacf" d="m25.426 56.46c0 0 11.335-7.32 24.626-7.32 0 0 11.948 0 11.948-11.08v18.396h-36.574"/></svg>

<svg xmlns="http://www.w3.org/2000/svg" width="64" height="64" viewBox="0 0 64 64"><path fill="#94989B" d="M2 56.461h60V62H2z"/><path fill="#62696D" d="M2 56.461h60v1.848H2z"/><path fill="#DFECF4" d="M25.346 14C14.488 14 2 37.428 2 50.605c0 3.188 2.536 5.777 5.693 5.855H62V14H25.346z"/><path fill="#3E4347" d="M15.129 19.856C8.286 27.253 2.629 40.103 2.057 49.14H12.23s13.182 0 13.182-7.32V19.856H15.129zM41.55 19.856c-7.324 0-7.324 1.464-7.324 15.374v13.91H62V19.856H41.55z"/><path fill="#3BAACF" d="M2.051 49.141c-.031.498-.051.99-.051 1.464 0 3.188 2.536 5.777 5.693 5.855H62v-7.32H2.051z"/><path fill="#FDF516" d="M11.521 56.461s7.343-7.32 21.98-7.32H62v7.32H11.521z"/><path fill="#62696D" d="M47.409 34.498c-.809 0-1.255.684-1.465 1.465l-1.281 10.25h-4.666c-1.377 0-1.377.873-1.377 1.951v.977h10.255V34.498h-1.466zM60.534 34.498c-.809 0-1.255.684-1.465 1.465l-1.281 10.25h-4.666c-1.377 0-1.377.873-1.377 1.951v.977H62V34.498h-1.466z"/><ellipse fill="#FFF" cx="6.395" cy="52.802" rx=".732" ry="2.196"/><path fill="#3BAACF" d="M25.426 56.461s11.335-7.32 24.626-7.32c0 0 11.948 0 11.948-11.076v18.396H25.426z"/></svg>
